img/promo/logo01.svg

<svg width="84" height="84" fill="none" xmlns="http://www.w3.org/2000/svg"><path d="M19.1 10.1H0v2.4h19.1v-2.4zM84 10.1H64.9v2.4H84v-2.4z" fill="#AA6C09"/><path d="M20.7 52.7L4.8 11.3l-2.1.9 16.2 42.2.6 1.5c.1-.4 1.1-2.7 1.2-3.2zM24.7 37.8l-9.8-25.6 1.5-.7.6-.2 9.8 25.6-2.1.9z" fill="#AA6C09"/><path d="M20.3 53.8l6.5-16.9-2.1-.9-6.4 16.8 2 1zM21.3 38.7l-11-28.6-2 .9 11.2 29.4.6 1.5c.1-.4 1.1-2.8 1.2-3.2zM42.2 10.1H23.1v2.4h19.1v-2.4z" fill="#AA6C09"/><path d="M43.3 52.7l-16-41.4-2.1.9 16.2 42.2.6 1.5c.2-.4 1.1-2.7 1.3-3.2zM47.3 37.8l-9.8-25.6 1.5-.7.5-.2 9.8 25.6-2 .9z" fill="#AA6C09"/><path d="M42.9 53.8l6.4-16.9-2-.9-6.5 16.8 2.1 1zM43.9 38.7l-11-28.6-2.1.9L42 40.4l.6 1.5c.2-.4 1.1-2.8 1.3-3.2zM45.3219 71.9996h16.8v-2.4h-16.8v2.4z" fill="#AA6C09"/><path d="M46.7 61.9l3.2 8.4-1.5.7-.5.3-3.2-8.5 2-.9z" fill="#AA6C09"/><path d="M51.1 45.9l-6.4 16.9 2 .9 6.5-16.8-2.1-1z" fill="#AA6C09"/><path d="M49.4 52.6c-.4 1-.9 2-1.3 2.9L54.4 72l2.1-.9-7.1-18.5z" fill="#AA6C09"/><path d="M57.9 71.1l22.7-59.4-2-.9-22.8 59.4 2.1.9z" fill="#AA6C09"/><path d="M50.7 47l7.4 19.2 2.1-.9-7.6-19.9-.6-1.6c-.2.4-1.1 2.7-1.3 3.2z" fill="#AA6C09"/><path d="M56.2 56.3l17.7-46.2 2.1.9-18 46.9-.6 1.5c-.1-.3-1-2.7-1.2-3.1zM54.3 66.1l2.5-6.5-1.5-2.3-3.1 7.9 2.1.9zM22.4046 71.9996h16.8v-2.4h-16.8v2.4z" fill="#AA6C09"/><path d="M24.2 61.9l3.2 8.4-1.5.7-.6.3-3.2-8.5 2.1-.9z" fill="#AA6C09"/><path d="M28.6 45.9l-6.5 16.9 2.1.9 6.4-16.8-2-1z" fill="#AA6C09"/><path d="M26.8 52.6c-.4 1-.9 2-1.3 2.9L31.8 72l2.1-.9-7.1-18.5z" fill="#AA6C09"/><path d="M35.4 71.1l2.2-5.9-2-.9-2.3 5.9 2.1.9z" fill="#AA6C09"/><path d="M28.2 47l7.4 19.2 2.1-.9-7.7-20-.6-1.5c-.1.4-1.1 2.7-1.2 3.2z" fill="#AA6C09"/><path d="M31.8 66.1l2.5-6.5-1.6-2.3-3 7.9 2.1.9zM58.7 36.9L69 10.1l2.1.9-10.6 27.6-.6 1.5c-.1-.4-1-2.8-1.2-3.2z" fill="#AA6C09"/></svg>

<svg width="84" height="84" viewBox="0 0 84 84" fill="none" xmlns="http://www.w3.org/2000/svg">
<path d="M19.1 10.1H0V12.5H19.1V10.1Z" fill="#AA6C09"/>
<path d="M84 10.1H64.9V12.5H84V10.1Z" fill="#AA6C09"/>
<path d="M20.7 52.7L4.8 11.3L2.7 12.2L18.9 54.4L19.5 55.9C19.6 55.5 20.6 53.2 20.7 52.7Z" fill="#AA6C09"/>
<path d="M24.7 37.8L14.9 12.2L16.4 11.5L17 11.3L26.8 36.9L24.7 37.8Z" fill="#AA6C09"/>
<path d="M20.3 53.8L26.8 36.9L24.7 36L18.3 52.8L20.3 53.8Z" fill="#AA6C09"/>
<path d="M21.3 38.7L10.3 10.1L8.3 11L19.5 40.4L20.1 41.9C20.2 41.5 21.2 39.1 21.3 38.7Z" fill="#AA6C09"/>
<path d="M42.2 10.1H23.1V12.5H42.2V10.1Z" fill="#AA6C09"/>
<path d="M43.3 52.7L27.3 11.3L25.2 12.2L41.4 54.4L42 55.9C42.2 55.5 43.1 53.2 43.3 52.7Z" fill="#AA6C09"/>
<path d="M47.3 37.8L37.5 12.2L39 11.5L39.5 11.3L49.3 36.9L47.3 37.8Z" fill="#AA6C09"/>
<path d="M42.9 53.8L49.3 36.9L47.3 36L40.8 52.8L42.9 53.8Z" fill="#AA6C09"/>
<path d="M43.9 38.7L32.9 10.1L30.8 11L42 40.4L42.6 41.9C42.8 41.5 43.7 39.1 43.9 38.7Z" fill="#AA6C09"/>
<path d="M45.3219 71.9996L62.1219 71.9996L62.1219 69.5996L45.3219 69.5996L45.3219 71.9996Z" fill="#AA6C09"/>
<path d="M46.7 61.9L49.9 70.3L48.4 71L47.9 71.3L44.7 62.8L46.7 61.9Z" fill="#AA6C09"/>
<path d="M51.1 45.9L44.7 62.8L46.7 63.7L53.2 46.9L51.1 45.9Z" fill="#AA6C09"/>
<path d="M49.4 52.6C49 53.6 48.5 54.6 48.1 55.5L54.4 72L56.5 71.1L49.4 52.6Z" fill="#AA6C09"/>
<path d="M57.9 71.1L80.6 11.7L78.6 10.8L55.8 70.2L57.9 71.1Z" fill="#AA6C09"/>
<path d="M50.7 47L58.1 66.2L60.2 65.3L52.6 45.4L52 43.8C51.8 44.2 50.9 46.5 50.7 47Z" fill="#AA6C09"/>
<path d="M56.2 56.3L73.9 10.1L76 11L58 57.9L57.4 59.4C57.3 59.1 56.4 56.7 56.2 56.3Z" fill="#AA6C09"/>
<path d="M54.3 66.1L56.8 59.6L55.3 57.3L52.2 65.2L54.3 66.1Z" fill="#AA6C09"/>
<path d="M22.4046 71.9996L39.2046 71.9996L39.2046 69.5996L22.4046 69.5996L22.4046 71.9996Z" fill="#AA6C09"/>
<path d="M24.2 61.9L27.4 70.3L25.9 71L25.3 71.3L22.1 62.8L24.2 61.9Z" fill="#AA6C09"/>
<path d="M28.6 45.9L22.1 62.8L24.2 63.7L30.6 46.9L28.6 45.9Z" fill="#AA6C09"/>
<path d="M26.8 52.6C26.4 53.6 25.9 54.6 25.5 55.5L31.8 72L33.9 71.1L26.8 52.6Z" fill="#AA6C09"/>
<path d="M35.4 71.1L37.6 65.2L35.6 64.3L33.3 70.2L35.4 71.1Z" fill="#AA6C09"/>
<path d="M28.2 47L35.6 66.2L37.7 65.3L30 45.3L29.4 43.8C29.3 44.2 28.3 46.5 28.2 47Z" fill="#AA6C09"/>
<path d="M31.8 66.1L34.3 59.6L32.7 57.3L29.7 65.2L31.8 66.1Z" fill="#AA6C09"/>
<path d="M58.7 36.9L69 10.1L71.1 11L60.5 38.6L59.9 40.1C59.8 39.7 58.9 37.3 58.7 36.9Z" fill="#AA6C09"/>
</svg>
